!!!ONB: MCCC : IJH0419_04 : Extracted Monophonic Melody
!!!COM: Haydn, Joseph
!!!OPR: String Quartet in C major
!!!OMV: 4
!!!SCT: Hob.III:45 ; Op.50 No.2
!!!ODT: 1787///
**kern
*thru
*k[]
*C:
*clefG
*M2/4
8cc
=2
16b
16cc
16dd
16b
8g
8r
=3
4.r
8gg
=4
16ff
16ee
16dd
16cc
8b
8r
=5
4.r
8cc
=6
16b
16cc
16dd
16b
8cc
8ee
=7
4g
8.f
32e
32f
=8
4e
8r
16cc
16ee
=9
8ff
8ee
8ff
8aa
=10
16gg
16aa
16ff
16gg
8ee
16cc
16ee
=11
8ff
8ee
8ff
8aa
=12
16gg
16aa
16ff
16gg
8ee
16cc
16ee
=13
8ff
8ee
8ff
8aa
=14
8gg
8bb
8ccc
8eee
=15
2gg
=16
2ff#
=17
16ff
16gg
16ff
16dd
16bb
16ccc
16bb
16ff
=18
16ddd
16eee
16ddd
16bb
8fff
8fff
=19
8fff
8r
8ddd
8r
=20
8bb
4.r
=21
8ff
8r
8dd
8r
=22
4.b
8r
=23
2r
=24
2r
=25
4.r
8ccc
=26
16bb
16ccc
16ddd
16eee
8fff
8r
=27
4.r
8cc
=28
8cc
16b
16cc
8dd
8dd
=29
8dd
16cc#
16dd
8ee
8ee
=30
16ee
16dd
16ff
16ee
16gg
16ff
16aa
16gg
=31
16bb-
16aa
16gg
16ff
16ee
16dd
16ee
16cc
=32
16b
16g
16a
16b
16cc
16dd
16ee
16ff#
=33
16gg
16aa
16bb
16ccc
16ddd
16bb
16aa
16gg
=34
16ff#
16gg
16aa
16gg
16bb
16aa
16ccc
16bb
=35
16ddd
16ccc
16bb
16aa
16gg
16ff#
16ee
16dd
=36
16cc
16b
16dd
16cc
16ee
16dd
16gg
16ff#
=37
16aa
16gg
16bb
16gg
16ff#
16ee
16dd
16cc#
=38
16d
16dd
16ee-
16dd
16ee
16dd
16ff#
16dd
=39
16gg
16dd
16aa
16dd
16bb
16dd
16ddd
16dd
=40
16ccc
16ddd
16bb
16ccc
16aa
16dd
16ee
16ff#
=41
16gg
16dd
16aa
16dd
16bb
16dd
16ddd
16dd
=42
16ccc
16ddd
16bb
16ccc
16aa
16dd
16ee
16ff#
=43
16gg
16dd
16aa
16dd
16bb
16dd
16ddd
16dd
=44
16ccc
16ddd
16bb
16ccc
16aa
16dd
16ee
16ff#
=45
4gg
8r
8dd
=46
16ccc
16ddd
16bb
16ccc
16aa
16bb
16gg
16aa
=47
16ff#
16gg
16ee
16ff#
16dd
16ee
16cc
16dd
=48
16cc
16b
16dd
16cc
16ee
16dd
16ee
16gg
=49
4g
8a
16g
16a
=50
4g
4r
=51
2r
=52
4.r
16ff#
16gg
=53
8aa
8aa
16aa
16ff#
16gg
16aa
=54
8bb
8bb
8bb
8r
=55
4r
4gg[
=56
8gg]
8gg#
4aa[
=57
8aa]
8aa#
4bb[
=58
16bb]
16ddd
16ccc
16bb
8aa
8ddd
=59
4.bb
8ccc
=60
8aa
8ddd
8ccc#
8ccc
=61
4.bb
8ccc
=62
8aa
8ddd
8ccc#
8ccc
=63
4.bb
8ccc
=64
8aa
8ddd
8ccc#
8ccc
=65
8bb
8aa
8ccc
8aa
=66
2gg
=67
2aa
=68
4gg
4r
=69
2r
=70
4.bb
8ccc
=71
8aa
8ddd
8ccc#
8ccc
=72
4.bb
8ccc
=73
8aa
8ddd
8ccc#
8ccc
=74
8bb
8aa
8ccc
8aa
=75
2gg
=76
2aa
=77
4gg
4r
=78
4.r
8ff#
=79
16gg
16aa
16bb
16gg
8dd
8r
=80
4.r
8f#
=81
16g
16a
16b
16g
8d
8r
=82
2r
=83
4.r
16b
16cc
=84
8dd
8dd
8dd
16dd
16ee
=85
8ff
8ff
8ff
8r
=86
4.r
16d
16e
=87
8f
8f
8f
8f
=88
4G#
4e[
=89
4e]
4d#
=90
4e
8r
8aa
=91
16gg#
16aa
16bb
16gg#
8ee
8ddd#
=92
4eee
4r
=93
2r
=94
2r
=95
2r
=96
4.r
16ccc
16aa
=97
8eee
8eee
8eee
8eee
=98
4ee
8r
16ddd
16gg#
=99
4aa
4r
=100
4.r
16ccc
16aa
=101
8eee
8eee
8eee
8eee
=102
4ee
8r
16ddd
16gg#
=103
8aa
8aa
8aa
8aa
=104
4a
8r
16aa
16ccc
=105
8bb-
8bb-
8bb-
8bb-
=106
4c
8r
16gg
16ee
=107
4ff
8r
16ccc
16bb-
=108
8aa
16aa
16gg
8ff
8r
=109
2r
=110
8r
16gg
16ff
8ee
16ccc
16bb-
=111
4aa
4r
=112
4.r
16aa
16ff
=113
8ccc
8ccc
8ccc
8ccc
=114
4cc
8r
16bb-
16ee
=115
8ff
8aa
8ccc
8aa
=116
2eee-[
=117
8eee-]
8ccc
8gg
8ee-
=118
2cc[
=119
8cc]
8gg
8ff
8ee-
=120
16dd
16b-
16a
16b-
16dd
16b-
16dd
16ee-
=121
16ff
16b-
16a
16b-
16ff
16b-
16ff
16gg
=122
16aa-
16bb-
16gg
16aa-
16ff
16gg
16ee-
16ff
=123
16dd
16ee-
16ff
16ee-
16dd
16cc
16b-
16a-
=124
4g
4r
=125
4.r
16bb-
16aa-
=126
16gg
16ee-
16dd
16ee-
16gg
16ee-
16gg
16aa-
=127
16bb-
16ee-
16dd
16ee-
16bb-
16ee-
16bb-
16ccc
=128
2ddd-
=129
4ccc
4bb-
=130
4.aa
16ccc
16ddd
=131
8eee-
8ccc
8aa
16ccc
16ddd
=132
8eee-
8ccc
8aa
16ccc
16ddd
=133
8eee-
8ccc
16aa
16ccc
16bb-
16aa
=134
4gg
4r
=135
4.r
16ee-
16cc
=136
8gg
8gg
8gg
8gg
=137
4gg
8r
16ee-
16cc
=138
8dd
8ff#
8gg
8bb-
=139
16cc#
16bb-
16aa
16gg#
16aa
16ee
16ff
16gg
=140
16ff
16dd
16cc#
16dd
16ff
16dd
16aa
16ff
=141
16ddd
16aa
16fff
16eee
16ddd
16ccc
16bb
16aa
=142
16gg#
16ee
16dd#
16ee
16ff#
16ee
16gg#
16ee
=143
16aa
16ee
16bb
16ee
16ccc
16ee
16eee
16ee
=144
16ddd
16eee
16ccc
16ddd
16bb
16ee
16ff#
16gg#
=145
16aa
16ee
16bb
16ee
16ccc
16ee
16eee
16ee
=146
16ddd
16eee
16ccc
16ddd
16bb
16ee
16ff#
16gg#
=147
16aa
16ee
16bb
16ee
16ccc
16bb
16aa
16gg
=148
16ff#
16dd
16ee-
16dd
16ee
16dd
16ff#
16dd
=149
16gg
16dd
16aa
16dd
16bb
16dd
16ddd
16dd
=150
16ccc
16ddd
16bb
16ccc
16aa
16dd
16ee
16ff#
=151
16gg
16dd
16aa
16dd
16bb
16dd
16ddd
16dd
=152
16ccc
16ddd
16bb
16ccc
16aa
16dd
16ee
16ff#
=153
16gg
16dd
16gg
16aa
16bb
16gg
16bb
16ccc
=154
4ddd
8r
16gg
16aa
=155
16bb
16gg
16bb
16ccc
16ddd
16bb
16ddd
16eee
=156
4fff
8r
16ddd
16eee
=157
8fff
8r
8ddd
8r
=158
8bb
4.r
=159
8ff
8r
8dd
8r
=160
4.b
8r
=161
4.r
8cc
=162
16b
16cc
16dd
16b
8g
8r
=163
4.r
8gg
=164
16ff
16ee
16dd
16cc
8b
8r
=165
4.r
8cc
=166
16b
16cc
16dd
16b
8cc
8ee
=167
4g
8.f
32e
32f
=168
4e
8.r
32cc
32ee
=169
8ff
8ee
8ff
8aa
=170
16gg
16aa
16ff
16gg
8ee
16cc
16ee
=171
8ff
8ee
8ff
8aa
=172
16gg
16aa
16ff
16gg
8ee
16cc
16ee
=173
8ff
8ee
8ff
8aa
=174
8gg
8ff#
8gg
8bb-
=175
16aa
16bb-
16gg
16aa
16ff
16gg
16ee
16ff
=176
16dd
16ee
16ff
16ee
16dd
16cc
16b
16a
=177
4g
8r
16g
16a
=178
16b
16cc
16dd
16cc
16b
16cc
16a
16b
=179
16cc
16dd
16ee
16dd
16cc
16dd
16b
16cc
=180
16dd
16ee
16ff
16ee
16dd
16ee
16cc
16dd
=181
16b
16cc
16dd
16cc
16b
16cc
16a
16b
=182
16g
16a
16b
16a
16g
16a
16f
16g
=183
16e
16cc
16b
16cc
16b
16cc
16ee
16cc
=184
16b
16a
16gg#
16aa
16gg#
16aa
16ff
16dd
=185
4cc
8dd
16cc
16dd
=186
4cc
4r
=187
2r
=188
4.r
16b
16cc
=189
8dd
8dd
16dd
16b
16cc
16dd
=190
8ee
8ee
8ee
8r
=191
4r
4cc[
=192
8cc]
8cc#
4dd[
=193
8dd]
8dd#
4ee[
=194
16ee]
16gg
16ff
16ee
8dd
8gg
=195
4.ee
8ff
=196
8dd
8gg
8ff#
8ff
=197
4.ee
8ff
=198
8dd
8gg
8ff#
8ff
=199
4.ee
8ff
=200
8dd
8gg
8ff#
8ff
=201
8ee
8dd
8ff
8dd
=202
2cc
=203
2dd
=204
4cc
4r
=205
2r
=206
4.eee
8fff
=207
8ddd
8ggg
8fff#
8fff
=208
4.eee
8fff
=209
8ddd
8ggg
8fff#
8fff
=210
8eee
8ddd
8fff
8ddd
=211
2ccc
=212
2ddd
=213
16ccc
16ccc
16bb
16ccc
16ddd
16ccc
16eee-
16ccc
=214
16r
16ccc
16bb
16ccc
16ddd
16ccc
16eee
16ccc
=215
16r
16ccc
16bb
16ccc
16ddd
16ccc
16fff
16ccc
=216
16r
16ccc
16bb
16ccc
16eee
16ccc
16ggg
16ccc
=217
2aaa
=218
4bbb
4cccc
=219
4G
16ff#
16gg
16ff#
16gg
=220
16ff#
16gg
16ff#
16gg
16ccc
16gg
16ff
16ee
=221
2dd[
=222
2dd]
=223
4cc
4r
=224
4.r
8cc
=225
16b
16cc
16dd
16b
8g
8r
=226
4.r
8b
=227
4cc
4r
=228
4.r
8ccc
=229
16bb
16ccc
16ddd
16eee
8fff
8r
=230
4.r
8b
=231
4cc
4r
=232
2r
==
*-
